images/flag-variant.svg

<svg width="18" height="20" viewBox="0 0 18 20" fill="none" xmlns="http://www.w3.org/2000/svg">
<path fill-rule="evenodd" clip-rule="evenodd" d="M0 18.1428C0 18.6425 0.404156 19.0476 0.902707 19.0476C1.40126 19.0476 1.80541 18.6425 1.80541 18.1428V14.5238H7.22166V16.7857C7.22166 17.2854 7.62581 17.6904 8.12436 17.6904H16.2487C16.5352 17.6904 16.8047 17.5542 16.9749 17.3232C17.145 17.0922 17.1958 16.794 17.1115 16.5196L15.3912 10.9158L17.1051 5.7623C17.1969 5.48639 17.1507 5.1831 16.981 4.94717C16.8114 4.71123 16.5389 4.57143 16.2487 4.57143H11.7352V3.66667C11.7352 3.16699 11.331 2.76191 10.8325 2.76191H1.80541L1.80541 1.85715C1.80541 1.35747 1.40126 0.952393 0.902706 0.952393C0.404155 0.952393 0 1.35747 0 1.85715V18.1428ZM1.80541 4.57143V12.7143H9.92978V4.57143H1.80541ZM11.7352 13.619V6.38095H14.9963L13.5869 10.6186C13.5274 10.7975 13.5252 10.9906 13.5805 11.1708L15.0265 15.8809H9.02707V14.5238H10.8325C11.331 14.5238 11.7352 14.1187 11.7352 13.619Z" fill="#3B3B3B"/>
</svg>

<svg width="18" height="20" fill="none" xmlns="http://www.w3.org/2000/svg"><path fill-rule="evenodd" clip-rule="evenodd" d="M0 18.143a.904.904 0 1 0 1.805 0v-3.62h5.417v2.263c0 .5.404.904.902.904h8.125a.902.902 0 0 0 .863-1.17l-1.72-5.604 1.713-5.154a.906.906 0 0 0-.856-1.19h-4.514v-.905c0-.5-.404-.905-.902-.905H1.804v-.905a.904.904 0 1 0-1.805 0v16.286ZM1.805 4.57v8.143H9.93V4.571H1.805Zm9.93 9.048V6.381h3.261l-1.41 4.238a.907.907 0 0 0-.005.552l1.446 4.71h-6v-1.357h1.806a.904.904 0 0 0 .902-.905Z" fill="#3B3B3B"/></svg>
